static/assets/images/tokens/usd0.svg

<svg width="256" height="256" viewBox="0 0 256 256" fill="none" xmlns="http://www.w3.org/2000/svg">
<path fill-rule="evenodd" clip-rule="evenodd" d="M126.047 15.3835C104.084 17.6595 84.6385 25.4861 67.084 39.1147C62.5133 42.6632 52.7759 52.3291 49.0462 57.0205C35.5213 74.0321 27.5187 93.2982 24.8391 115.299C24.2771 119.914 24.2701 135.275 24.8279 139.795C26.6349 154.434 30.1335 166.262 36.2415 178.381C50.9654 207.594 77.2519 228.793 108.856 236.943C118.947 239.545 127.463 240.492 138.59 240.25C146.558 240.076 148.758 239.765 153.71 238.107C165.641 234.112 176.534 224.341 182.647 212.149C184.058 209.332 186.695 202.877 186.434 202.877C186.362 202.877 185.047 203.508 183.512 204.28C156.865 217.674 123.798 216.55 98.2504 201.381C80.7377 190.983 67.7006 175.471 60.7536 156.766C53.8413 138.156 53.8992 116.843 60.9118 98.3278C68.8638 77.3319 84.3668 60.4955 104.803 50.6608C113.502 46.4744 122.132 43.9053 131.974 42.5726C136.876 41.9091 148.874 41.8201 153.551 42.4131C164.54 43.8064 176.023 47.1808 183.725 51.2808C185.202 52.0666 186.459 52.6599 186.52 52.5994C186.721 52.3986 184.159 46.1231 182.627 43.0609C176.6 31.0175 165.92 21.4412 153.942 17.3409C148.638 15.5253 146.162 15.1731 137.888 15.0581C132.957 14.9893 128.726 15.1055 126.047 15.3835ZM187.827 56.14C199.162 88.57 202.6 123.846 197.791 158.367C196.124 170.337 193.069 183.482 189.235 195.179C187.996 198.958 187.031 202.099 187.089 202.158C187.149 202.217 187.969 201.81 188.914 201.252C209.542 189.077 224.381 168.813 229.462 145.879C231.153 138.247 231.84 127.224 231.087 119.775C228.321 92.3796 213.145 68.7396 188.99 54.1976C187.913 53.5488 186.964 53.0179 186.883 53.0179C186.802 53.0179 187.227 54.4227 187.827 56.14ZM123.353 71.0298C123.358 71.2501 123.57 73.5194 123.823 76.0731C124.076 78.6268 124.288 81.3198 124.293 82.0575L124.302 83.3986L122.784 83.5994C116.337 84.4508 108.502 87.5376 104.675 90.7327C100.891 93.8929 98.0761 98.21 96.9046 102.651C96.1256 105.604 96.1384 112.362 96.9283 114.979C97.838 117.994 99.3631 120.578 101.464 122.664C106.061 127.229 112.351 129.479 126.06 131.461C142.107 133.782 144.626 134.468 147.081 137.191C148.42 138.675 148.747 139.967 148.515 142.855C148.153 147.376 144.607 150.581 138.207 152.172C135.115 152.942 126.639 152.953 123.589 152.192C116.867 150.515 112.639 146.51 111.976 141.192L111.762 139.475H94.894V140.714C94.894 142.782 95.797 147.292 96.6997 149.732C98.7743 155.339 103.375 160.223 109.438 163.256C111.992 164.533 116.879 165.972 120.735 166.582L124.302 167.146L124.302 168.281C124.302 169.418 123.841 174.993 123.486 178.14L123.297 179.822H130.512C137.172 179.822 137.727 179.778 137.724 179.261C137.722 178.953 137.507 176.323 137.248 173.417C136.627 166.46 136.579 167.013 137.808 167.013C139.112 167.012 143.323 166.276 146.044 165.573C153.419 163.668 159.969 159.164 163.069 153.866C165.677 149.407 166.828 142.524 165.879 137.061C165.036 132.212 162.464 127.936 158.733 125.181C153.409 121.25 147.92 119.561 133.412 117.388C121.822 115.652 118.391 114.784 116.036 112.989C114.088 111.504 113.259 108.378 114.066 105.558C114.882 102.709 117.727 100.296 121.933 98.8859C124.25 98.1091 124.905 98.0367 129.736 98.023C134.429 98.0092 135.258 98.0899 137.248 98.7527C142.46 100.489 145.598 103.807 146.413 108.443L146.746 110.336H163.62V109.558C163.62 107.72 162.873 103.59 162.139 101.37C159.171 92.3914 151.554 86.4569 139.938 84.073C138.332 83.7431 136.947 83.4031 136.861 83.3169C136.775 83.2311 136.935 80.712 137.216 77.719C137.498 74.726 137.728 71.9065 137.728 71.4534V70.6295H130.535C124.99 70.6295 123.345 70.7211 123.353 71.0298Z" fill="#E2F9EB"/>
<path fill-rule="evenodd" clip-rule="evenodd" d="M118.548 0.0626434C95.5643 2.11488 76.3853 8.61453 58.0448 20.5664C44.6129 29.32 32.3145 41.22 23.0634 54.4153C11.2125 71.3189 3.69134 90.6552 0.885087 111.434C-0.0633292 118.455 -0.294759 132.299 0.411998 139.709C2.26919 159.174 8.22692 177.464 18.0285 193.788C29.1832 212.367 44.822 227.821 63.6538 238.874C67.7636 241.286 76.8594 245.681 81.4685 247.482C92.5717 251.82 105.289 254.741 117.43 255.741C123.928 256.277 138.175 255.94 144.281 255.106C162.454 252.626 178.846 246.857 194.159 237.555C224.412 219.176 245.917 188.706 253.118 154.015C254.18 148.901 255.361 140.406 255.361 137.881C255.361 137.017 255.505 136.222 255.68 136.113C255.88 135.989 256 132.794 256 127.589C256 123.01 255.886 119.334 255.747 119.42C255.608 119.507 255.326 117.678 255.122 115.357C253.145 92.9236 244.273 70.0077 230.339 51.3438C226.115 45.6857 222.786 41.9159 216.955 36.1892C199.394 18.9394 177.152 7.13611 153.071 2.28555C144.776 0.614688 139.839 0.141415 129.577 0.0344648C124.302 -0.0209317 119.34 -0.00812328 118.548 0.0626434ZM126.047 15.3835C104.084 17.6595 84.6385 25.4861 67.084 39.1147C62.5133 42.6632 52.7759 52.3291 49.0462 57.0205C35.5213 74.0321 27.5187 93.2982 24.8391 115.299C24.2771 119.914 24.2701 135.275 24.8279 139.795C26.6349 154.434 30.1335 166.262 36.2415 178.381C50.9654 207.594 77.2519 228.793 108.856 236.943C118.947 239.545 127.463 240.492 138.59 240.25C146.558 240.076 148.758 239.765 153.71 238.107C165.641 234.112 176.534 224.341 182.647 212.149C184.058 209.332 186.695 202.877 186.434 202.877C186.362 202.877 185.047 203.508 183.512 204.28C156.865 217.674 123.798 216.55 98.2504 201.381C80.7377 190.983 67.7006 175.471 60.7536 156.766C53.8413 138.156 53.8992 116.843 60.9118 98.3278C68.8638 77.3319 84.3668 60.4955 104.803 50.6608C113.502 46.4744 122.132 43.9053 131.974 42.5726C136.876 41.9091 148.874 41.8201 153.551 42.4131C164.54 43.8064 176.023 47.1808 183.725 51.2808C185.202 52.0666 186.459 52.6599 186.52 52.5994C186.721 52.3986 184.159 46.1231 182.627 43.0609C176.6 31.0175 165.92 21.4412 153.942 17.3409C148.638 15.5253 146.162 15.1731 137.888 15.0581C132.957 14.9893 128.726 15.1055 126.047 15.3835ZM187.827 56.14C199.162 88.57 202.6 123.846 197.791 158.367C196.124 170.337 193.069 183.482 189.235 195.179C187.996 198.958 187.031 202.099 187.089 202.158C187.149 202.217 187.969 201.81 188.914 201.252C209.542 189.077 224.381 168.813 229.462 145.879C231.153 138.247 231.84 127.224 231.087 119.775C228.321 92.3796 213.145 68.7396 188.99 54.1976C187.913 53.5488 186.964 53.0179 186.883 53.0179C186.802 53.0179 187.227 54.4227 187.827 56.14ZM123.353 71.0298C123.358 71.2501 123.57 73.5194 123.823 76.0731C124.076 78.6268 124.288 81.3198 124.293 82.0575L124.302 83.3986L122.784 83.5994C116.337 84.4508 108.502 87.5376 104.675 90.7327C100.891 93.8929 98.0761 98.21 96.9046 102.651C96.1256 105.604 96.1384 112.362 96.9283 114.979C97.838 117.994 99.3631 120.578 101.464 122.664C106.061 127.229 112.351 129.479 126.06 131.461C142.107 133.782 144.626 134.468 147.081 137.191C148.42 138.675 148.747 139.967 148.515 142.855C148.153 147.376 144.607 150.581 138.207 152.172C135.115 152.942 126.639 152.953 123.589 152.192C116.867 150.515 112.639 146.51 111.976 141.192L111.762 139.475H94.894V140.714C94.894 142.782 95.797 147.292 96.6997 149.732C98.7743 155.339 103.375 160.223 109.438 163.256C111.992 164.533 116.879 165.972 120.735 166.582L124.302 167.146L124.302 168.281C124.302 169.418 123.841 174.993 123.486 178.14L123.297 179.822H130.512C137.172 179.822 137.727 179.778 137.724 179.261C137.722 178.953 137.507 176.323 137.248 173.417C136.627 166.46 136.579 167.013 137.808 167.013C139.112 167.012 143.323 166.276 146.044 165.573C153.419 163.668 159.969 159.164 163.069 153.866C165.677 149.407 166.828 142.524 165.879 137.061C165.036 132.212 162.464 127.936 158.733 125.181C153.409 121.25 147.92 119.561 133.412 117.388C121.822 115.652 118.391 114.784 116.036 112.989C114.088 111.504 113.259 108.378 114.066 105.558C114.882 102.709 117.727 100.296 121.933 98.8859C124.25 98.1091 124.905 98.0367 129.736 98.023C134.429 98.0092 135.258 98.0899 137.248 98.7527C142.46 100.489 145.598 103.807 146.413 108.443L146.746 110.336H163.62V109.558C163.62 107.72 162.873 103.59 162.139 101.37C159.171 92.3914 151.554 86.4569 139.938 84.073C138.332 83.7431 136.947 83.4031 136.861 83.3169C136.775 83.2311 136.935 80.712 137.216 77.719C137.498 74.726 137.728 71.9065 137.728 71.4534V70.6295H130.535C124.99 70.6295 123.345 70.7211 123.353 71.0298ZM0.0961787 127.947C0.0961787 132.614 0.14093 134.524 0.195272 132.19C0.249933 129.856 0.249933 126.038 0.195272 123.705C0.14093 121.371 0.0961787 123.28 0.0961787 127.947Z" fill="url(#paint0_linear_9443_717)"/>
<defs>
<linearGradient id="paint0_linear_9443_717" x1="215.404" y1="17.3144" x2="56.9765" y2="233.194" gradientUnits="userSpaceOnUse">
<stop stop-color="#6AF578"/>
<stop offset="1" stop-color="#2C7B2A"/>
</linearGradient>
</defs>
</svg>

<svg xmlns="http://www.w3.org/2000/svg" fill="none" viewBox="0 0 256 256"><path fill="#E2F9EB" fill-rule="evenodd" d="M126.047 15.384c-21.963 2.276-41.408 10.102-58.963 23.73-4.57 3.55-14.308 13.215-18.038 17.907C35.521 74.032 27.52 93.298 24.84 115.298c-.562 4.615-.569 19.976-.011 24.496 1.807 14.639 5.306 26.467 11.414 38.586 14.723 29.213 41.01 50.412 72.614 58.562 10.091 2.602 18.607 3.549 29.734 3.307 7.968-.174 10.168-.485 15.12-2.143 11.931-3.995 22.824-13.766 28.937-25.958 1.411-2.817 4.048-9.272 3.787-9.272-.072 0-1.387.631-2.922 1.403-26.647 13.394-59.714 12.27-85.262-2.899-17.512-10.398-30.55-25.91-37.496-44.615-6.913-18.61-6.855-39.923.158-58.438 7.952-20.996 23.455-37.832 43.891-47.667 8.699-4.187 17.329-6.756 27.171-8.088 4.902-.664 16.9-.753 21.577-.16 10.989 1.393 22.472 4.768 30.174 8.868 1.477.786 2.734 1.379 2.795 1.318.201-.2-2.361-6.476-3.893-9.538-6.027-12.044-16.707-21.62-28.685-25.72-5.304-1.816-7.78-2.168-16.054-2.283-4.931-.069-9.162.047-11.841.325m61.78 40.756c11.335 32.43 14.773 67.706 9.964 102.227-1.667 11.97-4.722 25.115-8.556 36.812-1.239 3.779-2.204 6.92-2.146 6.979.06.059.88-.348 1.825-.906 20.628-12.175 35.467-32.439 40.548-55.373 1.691-7.632 2.378-18.655 1.625-26.104-2.766-27.395-17.942-51.035-42.097-65.577-1.077-.65-2.026-1.18-2.107-1.18s.344 1.405.944 3.122m-64.474 14.89c.005.22.217 2.49.47 5.043s.465 5.247.47 5.985l.009 1.34-1.518.201c-6.447.852-14.282 3.939-18.109 7.134-3.784 3.16-6.599 7.477-7.77 11.918-.78 2.953-.767 9.711.023 12.328.91 3.015 2.435 5.599 4.536 7.685 4.597 4.565 10.887 6.815 24.596 8.797 16.047 2.321 18.566 3.007 21.021 5.73 1.339 1.484 1.666 2.776 1.434 5.664-.362 4.521-3.908 7.726-10.308 9.317-3.092.77-11.568.781-14.618.02-6.722-1.677-10.95-5.682-11.613-11l-.214-1.717H94.894v1.239c0 2.068.903 6.578 1.806 9.018 2.074 5.607 6.675 10.491 12.738 13.524 2.554 1.277 7.441 2.716 11.297 3.326l3.567.564v1.135c0 1.137-.461 6.712-.816 9.859l-.189 1.682h7.215c6.66 0 7.215-.044 7.212-.561-.002-.308-.217-2.938-.476-5.844-.621-6.957-.669-6.404.56-6.404 1.304-.001 5.515-.737 8.236-1.44 7.375-1.905 13.925-6.409 17.025-11.707 2.608-4.459 3.759-11.342 2.81-16.805-.843-4.849-3.415-9.125-7.146-11.88-5.324-3.931-10.813-5.62-25.321-7.793-11.59-1.736-15.021-2.604-17.376-4.399-1.948-1.485-2.777-4.611-1.97-7.431.816-2.849 3.661-5.262 7.867-6.672 2.317-.777 2.972-.85 7.803-.863 4.693-.014 5.522.067 7.512.73 5.212 1.736 8.35 5.054 9.165 9.69l.333 1.893h16.874v-.778c0-1.838-.747-5.968-1.481-8.188-2.968-8.979-10.585-14.913-22.201-17.297-1.606-.33-2.991-.67-3.077-.756s.074-2.605.355-5.598c.282-2.993.512-5.812.512-6.266v-.824h-7.193c-5.545 0-7.19.092-7.182.4" clip-rule="evenodd"/><path fill="url(#paint0_linear_9443_717)" fill-rule="evenodd" d="M118.548.063C95.564 2.115 76.385 8.615 58.045 20.566c-13.432 8.754-25.73 20.654-34.982 33.85C11.213 71.318 3.691 90.655.885 111.433c-.948 7.021-1.18 20.865-.473 28.275 1.857 19.465 7.815 37.755 17.617 54.079 11.154 18.579 26.793 34.033 45.625 45.086 4.11 2.412 13.205 6.807 17.815 8.608 11.103 4.338 23.82 7.259 35.961 8.259 6.498.536 20.745.199 26.851-.635 18.173-2.48 34.565-8.249 49.878-17.551 30.253-18.379 51.758-48.849 58.959-83.54 1.062-5.114 2.243-13.609 2.243-16.134 0-.864.144-1.659.319-1.768.2-.124.32-3.319.32-8.524 0-4.579-.114-8.255-.253-8.169s-.421-1.742-.625-4.063c-1.977-22.433-10.849-45.35-24.783-64.013-4.224-5.658-7.553-9.428-13.384-15.155-17.561-17.25-39.803-29.053-63.884-33.903C144.776.615 139.839.14 129.577.034c-5.275-.055-10.237-.042-11.029.029m7.499 15.32c-21.963 2.277-41.408 10.103-58.963 23.732-4.57 3.548-14.308 13.214-18.038 17.905C35.521 74.033 27.52 93.298 24.84 115.3c-.562 4.615-.569 19.976-.011 24.496 1.807 14.639 5.306 26.467 11.414 38.586 14.723 29.213 41.01 50.412 72.614 58.562 10.091 2.602 18.607 3.549 29.734 3.307 7.968-.174 10.168-.485 15.12-2.143 11.931-3.995 22.824-13.766 28.937-25.958 1.411-2.817 4.048-9.272 3.787-9.272-.072 0-1.387.631-2.922 1.403-26.647 13.394-59.714 12.27-85.262-2.899-17.512-10.398-30.55-25.91-37.496-44.615-6.913-18.61-6.855-39.923.158-58.438 7.952-20.996 23.455-37.832 43.891-47.667 8.699-4.187 17.329-6.756 27.171-8.088 4.902-.664 16.9-.753 21.577-.16 10.989 1.393 22.472 4.768 30.174 8.868 1.477.786 2.734 1.379 2.795 1.318.201-.2-2.361-6.476-3.893-9.538-6.027-12.044-16.707-21.62-28.685-25.72-5.304-1.816-7.78-2.168-16.054-2.283-4.931-.069-9.162.047-11.841.325m61.78 40.757c11.335 32.43 14.773 67.706 9.964 102.227-1.667 11.97-4.722 25.115-8.556 36.812-1.239 3.779-2.204 6.92-2.146 6.979.06.059.88-.348 1.825-.906 20.628-12.175 35.467-32.439 40.548-55.373 1.691-7.632 2.378-18.655 1.625-26.104-2.766-27.395-17.942-51.035-42.097-65.577-1.077-.65-2.026-1.18-2.107-1.18s.344 1.405.944 3.122m-64.474 14.89c.005.22.217 2.49.47 5.043s.465 5.247.47 5.985l.009 1.34-1.518.201c-6.447.852-14.282 3.939-18.109 7.134-3.784 3.16-6.599 7.477-7.77 11.918-.78 2.953-.767 9.711.023 12.328.91 3.015 2.435 5.599 4.536 7.685 4.597 4.565 10.887 6.815 24.596 8.797 16.047 2.321 18.566 3.007 21.021 5.73 1.339 1.484 1.666 2.776 1.434 5.664-.362 4.521-3.908 7.726-10.308 9.317-3.092.77-11.568.781-14.618.02-6.722-1.677-10.95-5.682-11.613-11l-.214-1.717H94.894v1.239c0 2.068.903 6.578 1.806 9.018 2.074 5.607 6.675 10.491 12.738 13.524 2.554 1.277 7.441 2.716 11.297 3.326l3.567.564v1.135c0 1.137-.461 6.712-.816 9.859l-.189 1.682h7.215c6.66 0 7.215-.044 7.212-.561-.002-.308-.217-2.938-.476-5.844-.621-6.957-.669-6.404.56-6.404 1.304-.001 5.515-.737 8.236-1.44 7.375-1.905 13.925-6.409 17.025-11.707 2.608-4.459 3.759-11.342 2.81-16.805-.843-4.849-3.415-9.125-7.146-11.88-5.324-3.931-10.813-5.62-25.321-7.793-11.59-1.736-15.021-2.604-17.376-4.399-1.948-1.485-2.777-4.611-1.97-7.431.816-2.849 3.661-5.262 7.867-6.672 2.317-.777 2.972-.85 7.803-.863 4.693-.014 5.522.067 7.512.73 5.212 1.736 8.35 5.054 9.165 9.69l.333 1.893h16.874v-.778c0-1.838-.747-5.968-1.481-8.188-2.968-8.979-10.585-14.913-22.201-17.297-1.606-.33-2.991-.67-3.077-.756s.074-2.605.355-5.598c.282-2.993.512-5.812.512-6.266v-.824h-7.193c-5.545 0-7.19.092-7.182.4M.096 127.947c0 4.667.045 6.577.1 4.243a220 220 0 0 0 0-8.485c-.055-2.334-.1-.425-.1 4.242" clip-rule="evenodd"/><defs><linearGradient id="paint0_linear_9443_717" x1="215.404" x2="56.977" y1="17.314" y2="233.194" gradientUnits="userSpaceOnUse"><stop stop-color="#6AF578"/><stop offset="1" stop-color="#2C7B2A"/></linearGradient></defs></svg>
